X:1
T:Title
%%score { ( 1 3 ) | ( 2 4 ) }
L:1/8
M:4/4
K:Db
V:1 treble nm="Grand Piano"
V:3 treble 
V:2 treble 
V:4 treble 
V:1
 z8[Q:1/4=100] | [A,DFA]2 z2 [DFB]2 z2 | [A,DFA]2 F4 B2 | A2 [CF]>[CE] [B,D]2 [B,EG]2 | %4
 [DF]4 [CE]2 A2 | A3 A [GB]2 [Gc]2 | [Fd]4 [A,B,FA]2[K:bass] [G,B,EG]2 | z4 D2 z2 | %8
[M:3/4] [F,A,D]6 |] %9
V:2
 z4 z2 A>F | D,2[K:treble] A>F[K:bass] [B,,F,B,]2[K:treble] B>F | D,2 [D,A,D]4 [G,A,CE]2 | %3
 [F,A,D]2 [A,,A,]>[=A,,G,] [B,,F,]2 [E,,E,]2 | [A,,A,]4 [A,,A,]2 [G,A,CE]2 | %5
 [F,A,D]3 [F,A,D] [E,G,D]2 [E,A,C]2 | [D,A,D]4 G,,2 G,,2 | A,,2 A,,2 z2 C2 |[M:3/4] D,6 |] %9
V:3
 x8 | x8 | x8 | x8 | x8 | x8 | x6[K:bass] x2 | [F,A,DF]4 [G,A,E]4 |[M:3/4] x6 |] %9
V:4
 x8 | x2[K:treble] x2[K:bass] x2[K:treble] x2 | x8 | x8 | x8 | x8 | x8 | z4 A,,4 |[M:3/4] x6 |] %9

